public/assets/img/icon/service-icon_2-5.svg

<svg width="55" height="55" viewBox="0 0 55 55" fill="none" xmlns="http://www.w3.org/2000/svg">
<path d="M47.1936 19.5161C46.7365 19.5158 46.2874 19.6357 45.8913 19.8637C45.4952 20.0917 45.1659 20.4199 44.9366 20.8152C44.7073 21.2106 44.586 21.6593 44.5847 22.1164C44.5835 22.5734 44.7025 23.0228 44.9297 23.4193L47.9032 28.6231V34.1062C47.3939 33.4471 46.797 32.8607 46.129 32.3631V30.8958C46.1288 29.0542 45.3971 27.288 44.0949 25.9858C42.7926 24.6835 41.0265 23.9518 39.1848 23.9516H35.6932L31.0484 21.6292V20.0901C32.1238 19.2857 32.9858 18.23 33.5589 17.0154C34.2376 17.8014 35.078 18.4317 36.0226 18.8632C36.9672 19.2948 37.9938 19.5175 39.0323 19.5161H42.5807C42.7807 19.5163 42.9749 19.4489 43.1317 19.3248C43.2886 19.2008 43.399 19.0273 43.4449 18.8327C43.4908 18.638 43.4696 18.4336 43.3847 18.2525C43.2998 18.0714 43.1562 17.9243 42.9772 17.8351C42.0561 17.3786 41.2813 16.6731 40.7408 15.7986C40.2004 14.9242 39.9158 13.9157 39.9194 12.8877V6.20966C39.9204 4.96532 39.5473 3.74941 38.8485 2.71986C38.1496 1.6903 37.1573 0.894663 36.0005 0.436289C34.8437 -0.0220841 33.5757 -0.122016 32.3614 0.149472C31.147 0.420961 30.0423 1.05132 29.1908 1.95869C28.0259 1.70356 26.8185 1.71312 25.6577 1.98667C24.4969 2.26022 23.4123 2.79079 22.4839 3.53927C21.5555 4.28775 20.8068 5.23505 20.2932 6.31134C19.7796 7.38764 19.514 8.56548 19.5161 9.75805V13.3064C19.5161 13.4442 19.5482 13.58 19.6098 13.7032C19.6714 13.8263 19.7608 13.9335 19.871 14.0161C19.9676 14.0845 20.0771 14.1325 20.1928 14.1574C20.3085 14.1822 20.4281 14.1834 20.5443 14.1607C20.8627 16.5039 22.0857 18.6294 23.9516 20.0821V21.6292L19.3068 23.9516H15.8152C13.9735 23.9518 12.2074 24.6835 10.9051 25.9858C9.6029 27.288 8.87121 29.0542 8.87097 30.8958V32.3631C8.20301 32.8607 7.6061 33.4471 7.09678 34.1062V28.6231L10.0721 23.4158C10.2985 23.0192 10.4168 22.57 10.415 22.1134C10.4133 21.6567 10.2916 21.2085 10.0622 20.8136C9.83276 20.4187 9.50364 20.091 9.10776 19.8633C8.71189 19.6356 8.26314 19.5159 7.80645 19.5161C6.8951 19.5162 6.00034 19.7599 5.21486 20.2221C4.42938 20.6842 3.78174 21.348 3.33903 22.1446C1.15102 26.0888 0.00200257 30.5246 2.42715e-07 35.035V41.478C-0.000296931 42.398 0.272301 43.2974 0.783302 44.0624C1.2943 44.8274 2.02074 45.4237 2.87071 45.7757C3.72067 46.1278 4.65596 46.2198 5.55824 46.0401C6.46051 45.8605 7.28923 45.4172 7.93952 44.7664L16.4672 36.2388L18.1216 41.2065C18.7017 42.9477 18.7855 44.816 18.3637 46.6021C17.942 48.3882 17.0312 50.0217 15.7336 51.3194L13.5664 53.4866C13.4427 53.6107 13.3585 53.7687 13.3244 53.9406C13.2904 54.1125 13.308 54.2906 13.3751 54.4525C13.4422 54.6144 13.5557 54.7528 13.7014 54.8502C13.8471 54.9477 14.0183 54.9998 14.1936 55H40.8065C40.9819 55 41.1534 54.9479 41.2992 54.8504C41.4451 54.753 41.5587 54.6144 41.6259 54.4524C41.693 54.2903 41.7105 54.1119 41.6763 53.9399C41.6421 53.7678 41.5577 53.6098 41.4336 53.4857L39.2665 51.3185C37.9688 50.0208 37.058 48.3874 36.6363 46.6012C36.2145 44.8151 36.2983 42.9468 36.8784 41.2056L38.5328 36.2379L47.0605 44.7656C47.7107 45.4163 48.5394 45.8595 49.4416 46.0392C50.3437 46.2189 51.279 46.1269 52.1289 45.775C52.9788 45.4231 53.7053 44.8269 54.2163 44.0621C54.7274 43.2972 55.0001 42.3979 55 41.478V35.035C54.9975 30.5248 53.8482 26.0893 51.6601 22.1455C51.2174 21.349 50.5699 20.6852 49.7847 20.2229C48.9994 19.7607 48.1048 19.5166 47.1936 19.5161ZM46.4706 22.5367C46.3982 22.41 46.3603 22.2666 46.3608 22.1207C46.3612 21.9748 46.4 21.8315 46.4732 21.7053C46.5464 21.5791 46.6515 21.4744 46.7779 21.4015C46.9043 21.3287 47.0477 21.2903 47.1936 21.2903C47.7886 21.2903 48.3729 21.4495 48.8858 21.7513C49.3986 22.0531 49.8214 22.4866 50.1103 23.0068C50.902 24.4369 51.5498 25.942 52.0442 27.5H49.3049L46.4706 22.5367ZM33.7097 1.77418C34.8856 1.77558 36.013 2.24335 36.8445 3.07486C37.676 3.90637 38.1438 5.03373 38.1452 6.20966V12.8877C38.1401 14.6768 38.7945 16.4049 39.9832 17.7419H39.0323C38.0694 17.7431 37.1233 17.4892 36.2904 17.0062C35.4574 16.5232 34.7671 15.8282 34.2898 14.9919C34.3555 14.7196 34.4123 14.4428 34.4575 14.1598C34.5029 14.175 34.5495 14.1862 34.5968 14.1935C34.8321 14.1935 35.0577 14.1001 35.2241 13.9337C35.3904 13.7673 35.4839 13.5417 35.4839 13.3064V9.75805C35.482 8.2806 35.0702 6.83265 34.2944 5.57532C33.5185 4.318 32.4089 3.30063 31.0892 2.63643C31.8479 2.07587 32.7664 1.77363 33.7097 1.77418ZM21.2903 9.75805C21.2903 8.11114 21.9446 6.53168 23.1091 5.36714C24.2736 4.2026 25.8531 3.54837 27.5 3.54837C29.1469 3.54837 30.7264 4.2026 31.8909 5.36714C33.0555 6.53168 33.7097 8.11114 33.7097 9.75805V10.8563L30.8426 7.41611C30.7414 7.29469 30.6097 7.2025 30.4609 7.14908C30.3122 7.09566 30.1519 7.08294 29.9966 7.11224C29.8413 7.14155 29.6966 7.21181 29.5776 7.31577C29.4585 7.41972 29.3694 7.55359 29.3194 7.70353C29.0899 8.3904 28.6988 9.01212 28.179 9.51644C27.6593 10.0208 27.0261 10.3929 26.3326 10.6017L21.2903 12.1142V9.75805ZM22.2661 13.6755L26.8471 12.3014C28.308 11.8619 29.5597 10.9071 30.3698 9.61434L32.8217 12.5568C32.7614 16.406 30.3999 19.5161 27.5 19.5161C24.9186 19.5161 22.7097 17.0012 22.2661 13.6755ZM25.2352 22.9758C25.3834 22.9018 25.5079 22.7878 25.5945 22.6467C25.6812 22.5056 25.7267 22.343 25.7258 22.1774V20.9976C26.8765 21.3873 28.1235 21.3873 29.2742 20.9976V22.1774C29.2741 22.3423 29.32 22.5039 29.4066 22.6441C29.4933 22.7844 29.6173 22.8977 29.7648 22.9714L31.4573 23.8177L32.662 31.0484H22.338L23.5427 23.8177L25.2352 22.9758ZM4.89145 23.0113C5.17965 22.4905 5.60192 22.0563 6.11448 21.7536C6.62705 21.451 7.21123 21.2911 7.80645 21.2903C7.95235 21.2903 8.09569 21.3287 8.22211 21.4015C8.34852 21.4744 8.4536 21.5791 8.5268 21.7053C8.60001 21.8315 8.63879 21.9748 8.63925 22.1207C8.63971 22.2666 8.60184 22.41 8.52944 22.5367L5.69516 27.5H2.95581C3.45074 25.9419 4.09914 24.4368 4.89145 23.0068V23.0113ZM6.68516 43.5121C6.28283 43.9144 5.77025 44.1883 5.21222 44.2993C4.6542 44.4103 4.0758 44.3533 3.55016 44.1356C3.02452 43.9179 2.57523 43.5492 2.25911 43.0761C1.943 42.6031 1.77425 42.0469 1.77419 41.478V35.035C1.77825 33.0942 2.01049 31.1607 2.46613 29.2742H5.32258V38.1452C5.32248 38.3618 5.40163 38.5709 5.54511 38.7332C5.68858 38.8955 5.88647 38.9996 6.10145 39.026C6.31596 39.0503 6.53202 38.9964 6.70996 38.8741C6.88791 38.7519 7.0158 38.5696 7.07016 38.3607L7.18194 37.9172C7.62585 36.1337 8.72027 34.5805 10.2504 33.5624C10.3721 33.4812 10.4718 33.3712 10.5407 33.2421C10.6096 33.113 10.6455 32.9689 10.6452 32.8226V30.8958C10.6452 30.2169 10.7789 29.5446 11.0387 28.9173C11.2985 28.2901 11.6793 27.7201 12.1594 27.2401C12.6395 26.76 13.2094 26.3792 13.8367 26.1193C14.4639 25.8595 15.1362 25.7258 15.8152 25.7258H18.3549L16.0609 34.1364L6.68516 43.5121ZM38.0121 52.5729L38.665 53.2258H16.335L16.9879 52.5729C18.2498 51.3254 19.206 49.8028 19.7816 48.1242C20.3572 46.4457 20.5365 44.6567 20.3056 42.8973C24.9735 41.328 30.0265 41.328 34.6944 42.8973C34.4635 44.6567 34.6429 46.4457 35.2184 48.1242C35.794 49.8028 36.7502 51.3254 38.0121 52.5729ZM35.1947 40.6414C35.1388 40.8091 35.0962 40.9794 35.0483 41.1489C30.1431 39.5503 24.857 39.5503 19.9517 41.1489C19.9038 40.9794 19.863 40.8091 19.8053 40.6414L17.7819 34.571L20.2657 25.4552L21.5786 24.7988L20.4139 31.7891C20.3926 31.9163 20.3993 32.0467 20.4336 32.1711C20.4678 32.2955 20.5288 32.4109 20.6123 32.5092C20.6957 32.6076 20.7996 32.6866 20.9167 32.7408C21.0338 32.7949 21.1613 32.8228 21.2903 32.8226H33.7097C33.8385 32.8225 33.9658 32.7944 34.0827 32.7402C34.1996 32.686 34.3033 32.6069 34.3866 32.5086C34.4698 32.4102 34.5306 32.2949 34.5648 32.1706C34.5989 32.0464 34.6056 31.9162 34.5844 31.7891L33.4196 24.7988L34.7325 25.4552L37.2164 34.571L35.1947 40.6414ZM53.2258 41.478C53.2258 42.0469 53.057 42.6031 52.7409 43.0761C52.4248 43.5492 51.9755 43.9179 51.4499 44.1356C50.9242 44.3533 50.3458 44.4103 49.7878 44.2993C49.2298 44.1883 48.7172 43.9144 48.3149 43.5121L38.9436 34.1364L36.6451 25.7258H39.1848C39.8638 25.7258 40.5361 25.8595 41.1633 26.1193C41.7906 26.3792 42.3605 26.76 42.8406 27.2401C43.3207 27.7201 43.7015 28.2901 43.9613 28.9173C44.2211 29.5446 44.3549 30.2169 44.3549 30.8958V32.8226C44.3548 32.9686 44.3908 33.1123 44.4597 33.2411C44.5286 33.3698 44.6282 33.4796 44.7496 33.5606C46.2784 34.5794 47.3715 36.1325 47.8145 37.9154L47.9263 38.3589C47.9758 38.5722 48.1024 38.7597 48.2818 38.8852C48.4612 39.0107 48.6806 39.0655 48.8979 39.039C49.1153 39.0124 49.3151 38.9065 49.459 38.7415C49.6029 38.5765 49.6807 38.3641 49.6774 38.1452V29.2742H52.5339C52.9895 31.1607 53.2218 33.0942 53.2258 35.035V41.478Z" fill="#F41E1E"/>
</svg>

<?xml version="1.0" encoding="UTF-8"?>
<svg id="Camada_1" data-name="Camada 1" xmlns="http://www.w3.org/2000/svg" viewBox="0 0 55 55">
  <defs>
    <style>
      .cls-1 {
        fill: #f1c40f;
      }
    </style>
  </defs>
  <path class="cls-1" d="M47.19,19.52c-.46,0-.91,.12-1.3,.35-.4,.23-.73,.56-.95,.95-.23,.4-.35,.84-.35,1.3,0,.46,.12,.91,.34,1.3l2.97,5.2v5.48c-.51-.66-1.11-1.25-1.77-1.74v-1.47c0-1.84-.73-3.61-2.03-4.91s-3.07-2.03-4.91-2.03h-3.49l-4.64-2.32v-1.54c1.08-.8,1.94-1.86,2.51-3.07,.68,.79,1.52,1.42,2.46,1.85,.94,.43,1.97,.65,3.01,.65h3.55c.2,0,.39-.07,.55-.19,.16-.12,.27-.3,.31-.49,.05-.19,.02-.4-.06-.58-.08-.18-.23-.33-.41-.42-.92-.46-1.7-1.16-2.24-2.04-.54-.87-.83-1.88-.82-2.91V6.21c0-1.24-.37-2.46-1.07-3.49-.7-1.03-1.69-1.83-2.85-2.28-1.16-.46-2.42-.56-3.64-.29-1.21,.27-2.32,.9-3.17,1.81-1.16-.26-2.37-.25-3.53,.03-1.16,.27-2.25,.8-3.17,1.55s-1.68,1.7-2.19,2.77c-.51,1.08-.78,2.25-.78,3.45v3.55c0,.14,.03,.27,.09,.4,.06,.12,.15,.23,.26,.31,.1,.07,.21,.12,.32,.14,.12,.02,.24,.03,.35,0,.32,2.34,1.54,4.47,3.41,5.92v1.55l-4.64,2.32h-3.49c-1.84,0-3.61,.73-4.91,2.03-1.3,1.3-2.03,3.07-2.03,4.91v1.47c-.67,.5-1.26,1.08-1.77,1.74v-5.48l2.98-5.21c.23-.4,.34-.85,.34-1.3,0-.46-.12-.9-.35-1.3-.23-.39-.56-.72-.95-.95-.4-.23-.84-.35-1.3-.35-.91,0-1.81,.24-2.59,.71-.79,.46-1.43,1.13-1.88,1.92C1.15,26.09,0,30.52,0,35.03v6.44c0,.92,.27,1.82,.78,2.58,.51,.76,1.24,1.36,2.09,1.71,.85,.35,1.79,.44,2.69,.26,.9-.18,1.73-.62,2.38-1.27l8.53-8.53,1.65,4.97c.58,1.74,.66,3.61,.24,5.4-.42,1.79-1.33,3.42-2.63,4.72l-2.17,2.17c-.12,.12-.21,.28-.24,.45-.03,.17-.02,.35,.05,.51,.07,.16,.18,.3,.33,.4,.15,.1,.32,.15,.49,.15h26.61c.18,0,.35-.05,.49-.15,.15-.1,.26-.24,.33-.4,.07-.16,.08-.34,.05-.51-.03-.17-.12-.33-.24-.45l-2.17-2.17c-1.3-1.3-2.21-2.93-2.63-4.72-.42-1.79-.34-3.65,.24-5.4l1.65-4.97,8.53,8.53c.65,.65,1.48,1.09,2.38,1.27,.9,.18,1.84,.09,2.69-.26,.85-.35,1.58-.95,2.09-1.71,.51-.76,.78-1.66,.78-2.58v-6.44c0-4.51-1.15-8.95-3.34-12.89-.44-.8-1.09-1.46-1.88-1.92-.79-.46-1.68-.71-2.59-.71Zm-.72,3.02c-.07-.13-.11-.27-.11-.42,0-.15,.04-.29,.11-.42,.07-.13,.18-.23,.3-.3,.13-.07,.27-.11,.42-.11,.6,0,1.18,.16,1.69,.46,.51,.3,.94,.74,1.22,1.26,.79,1.43,1.44,2.94,1.93,4.49h-2.74l-2.83-4.96ZM33.71,1.77c1.18,0,2.3,.47,3.13,1.3,.83,.83,1.3,1.96,1.3,3.13v6.68c0,1.79,.65,3.52,1.84,4.85h-.95c-.96,0-1.91-.25-2.74-.74-.83-.48-1.52-1.18-2-2.01,.07-.27,.12-.55,.17-.83,.05,.02,.09,.03,.14,.03,.24,0,.46-.09,.63-.26,.17-.17,.26-.39,.26-.63v-3.55c0-1.48-.41-2.93-1.19-4.18-.78-1.26-1.89-2.27-3.21-2.94,.76-.56,1.68-.86,2.62-.86Zm-12.42,7.98c0-1.65,.65-3.23,1.82-4.39,1.16-1.16,2.74-1.82,4.39-1.82s3.23,.65,4.39,1.82c1.16,1.16,1.82,2.74,1.82,4.39v1.1l-2.87-3.44c-.1-.12-.23-.21-.38-.27-.15-.05-.31-.07-.46-.04-.16,.03-.3,.1-.42,.2-.12,.1-.21,.24-.26,.39-.23,.69-.62,1.31-1.14,1.81-.52,.5-1.15,.88-1.85,1.09l-5.04,1.51v-2.36Zm.98,3.92l4.58-1.37c1.46-.44,2.71-1.39,3.52-2.69l2.45,2.94c-.06,3.85-2.42,6.96-5.32,6.96-2.58,0-4.79-2.51-5.23-5.84Zm2.97,9.3c.15-.07,.27-.19,.36-.33,.09-.14,.13-.3,.13-.47v-1.18c1.15,.39,2.4,.39,3.55,0v1.18c0,.16,.05,.33,.13,.47,.09,.14,.21,.25,.36,.33l1.69,.85,1.2,7.23h-10.32l1.2-7.23,1.69-.84Zm-20.34,.04c.29-.52,.71-.95,1.22-1.26,.51-.3,1.1-.46,1.69-.46,.15,0,.29,.04,.42,.11,.13,.07,.23,.18,.3,.3,.07,.13,.11,.27,.11,.42,0,.15-.04,.29-.11,.42l-2.83,4.96H2.96c.49-1.56,1.14-3.06,1.94-4.49h0Zm1.79,20.51c-.4,.4-.91,.68-1.47,.79-.56,.11-1.14,.05-1.66-.16-.53-.22-.97-.59-1.29-1.06-.32-.47-.48-1.03-.48-1.6v-6.44c0-1.94,.24-3.87,.69-5.76h2.86v8.87c0,.22,.08,.43,.22,.59,.14,.16,.34,.27,.56,.29,.21,.02,.43-.03,.61-.15,.18-.12,.31-.3,.36-.51l.11-.44c.44-1.78,1.54-3.34,3.07-4.35,.12-.08,.22-.19,.29-.32s.1-.27,.1-.42v-1.93c0-.68,.13-1.35,.39-1.98,.26-.63,.64-1.2,1.12-1.68,.48-.48,1.05-.86,1.68-1.12,.63-.26,1.3-.39,1.98-.39h2.54l-2.29,8.41-9.38,9.38Zm31.33,9.06l.65,.65H16.33l.65-.65c1.26-1.25,2.22-2.77,2.79-4.45,.58-1.68,.75-3.47,.52-5.23,4.67-1.57,9.72-1.57,14.39,0-.23,1.76-.05,3.55,.52,5.23,.58,1.68,1.53,3.2,2.79,4.45Zm-2.82-11.93c-.06,.17-.1,.34-.15,.51-4.91-1.6-10.19-1.6-15.1,0-.05-.17-.09-.34-.15-.51l-2.02-6.07,2.48-9.12,1.31-.66-1.16,6.99c-.02,.13-.01,.26,.02,.38,.03,.12,.1,.24,.18,.34,.08,.1,.19,.18,.3,.23,.12,.05,.24,.08,.37,.08h12.42c.13,0,.26-.03,.37-.08,.12-.05,.22-.13,.3-.23,.08-.1,.14-.21,.18-.34,.03-.12,.04-.25,.02-.38l-1.16-6.99,1.31,.66,2.48,9.12-2.02,6.07Zm18.03,.84c0,.57-.17,1.13-.48,1.6-.32,.47-.77,.84-1.29,1.06-.53,.22-1.1,.27-1.66,.16s-1.07-.38-1.47-.79l-9.37-9.38-2.3-8.41h2.54c.68,0,1.35,.13,1.98,.39,.63,.26,1.2,.64,1.68,1.12,.48,.48,.86,1.05,1.12,1.68,.26,.63,.39,1.3,.39,1.98v1.93c0,.15,.04,.29,.1,.42,.07,.13,.17,.24,.29,.32,1.53,1.02,2.62,2.57,3.06,4.35l.11,.44c.05,.21,.18,.4,.36,.53,.18,.13,.4,.18,.62,.15,.22-.03,.42-.13,.56-.3,.14-.17,.22-.38,.22-.6v-8.87h2.86c.46,1.89,.69,3.82,.69,5.76v6.44Z"/>
</svg>
